<?xml version="1.0" encoding="UTF-8"?>
<map version="1.10" tiledversion="1.11.2" orientation="orthogonal" renderorder="right-down" width="30" height="20" tilewidth="32" tileheight="32" infinite="0" nextlayerid="6" nextobjectid="26">
 <tileset firstgid="1" source="terrain.tsx"/>
 <layer id="1" name="Background" width="30" height="20">
  <data encoding="csv">
581,581,581,581,581,581,581,581,581,581,581,581,581,581,581,581,581,581,581,581,581,581,581,581,581,581,581,581,581,581,
581,581,581,581,581,581,581,581,581,581,581,581,581,581,581,581,581,581,581,581,581,581,581,581,581,581,581,581,581,581,
581,581,581,581,581,581,581,581,581,581,581,581,581,581,581,581,581,581,581,708,581,581,581,581,581,581,581,581,581,581,
581,581,708,581,581,581,581,581,581,581,581,581,581,581,581,581,581,581,581,581,581,581,581,581,581,581,581,581,581,581,
581,581,581,581,581,581,581,581,581,708,581,581,581,581,581,581,581,581,581,581,581,581,581,581,581,581,581,581,581,581,
581,581,581,581,581,581,581,581,581,581,581,581,581,581,581,581,581,581,581,581,581,1156,581,581,581,581,581,581,581,581,
581,581,581,581,581,581,581,581,581,581,581,581,581,581,581,581,581,581,1284,1285,1285,1285,1285,1286,581,581,581,581,581,581,
581,581,581,581,581,581,581,581,581,581,581,581,581,581,708,581,581,581,1348,1157,1413,1413,1413,1414,581,581,581,581,581,581,
581,581,581,581,581,581,581,581,581,581,581,581,581,581,581,581,581,1284,1222,1350,581,581,581,581,581,581,581,581,581,581,
581,581,581,708,581,581,581,708,581,581,581,581,1284,1285,1285,1285,1285,1222,1157,1414,581,581,581,581,581,581,581,581,581,581,
581,581,581,581,581,581,581,581,581,581,581,581,1348,1157,1413,1413,1413,1413,1414,581,581,581,581,581,581,581,581,581,581,581,
581,581,581,581,581,581,581,581,581,581,581,1284,1222,1350,581,581,581,581,581,581,581,581,581,581,581,581,581,581,581,581,
581,581,1593,1593,581,1285,1285,1285,1285,1285,1285,1222,1157,1414,581,581,581,581,581,581,581,581,581,581,581,581,581,581,581,581,
581,581,1593,1593,581,1413,1413,1413,1413,1413,1413,1413,1414,581,581,581,581,581,581,581,581,708,581,581,581,581,581,581,581,581,
248,248,377,377,505,505,505,581,581,581,581,581,581,581,581,581,581,581,581,581,581,581,581,581,581,581,581,581,581,581,
443,443,443,443,443,443,443,581,581,581,581,581,581,581,581,708,581,581,581,581,581,581,581,581,581,581,581,581,581,581,
443,443,443,581,581,581,581,581,581,581,581,581,581,581,581,581,581,581,581,581,581,581,581,581,581,581,581,581,581,581,
636,636,512,581,581,581,708,581,581,581,581,581,581,581,581,581,581,581,581,581,581,581,581,581,581,581,581,581,581,581,
1018,1018,635,636,581,581,581,581,581,581,581,581,581,581,581,581,581,581,581,581,581,581,581,581,581,581,581,581,581,581,
1018,1018,507,508,581,581,581,581,581,581,581,581,581,581,581,581,581,581,581,581,581,581,581,581,581,581,581,581,581,581
</data>
 </layer>
 <layer id="3" name="Background2" width="30" height="20">
  <data encoding="csv">
0,0,0,0,0,0,0,0,0,0,0,0,0,0,0,0,0,0,0,0,0,0,0,0,0,0,0,0,0,0,
0,0,0,0,0,0,0,0,0,0,0,0,0,0,0,0,0,0,0,0,0,0,0,0,0,0,0,0,0,0,
0,0,0,0,0,0,0,0,0,0,0,0,0,0,0,0,0,0,0,0,0,0,0,0,0,0,0,0,0,0,
0,0,0,0,0,0,0,0,0,0,0,0,0,0,0,0,0,0,0,0,0,0,0,0,0,0,0,0,0,0,
0,0,0,0,0,0,0,0,0,0,0,0,0,0,0,0,0,0,0,0,0,0,0,0,0,0,0,0,0,0,
0,0,0,0,0,0,0,0,0,0,0,0,0,0,0,0,0,0,0,0,0,0,0,0,0,0,0,0,0,0,
0,0,0,0,0,0,0,0,0,0,0,0,0,0,0,0,0,0,0,0,0,0,0,0,0,0,0,0,0,0,
0,0,0,0,0,0,0,0,0,0,0,0,0,0,0,0,0,0,0,0,0,0,0,0,0,0,0,0,0,0,
0,0,0,0,0,0,0,0,0,0,0,0,0,0,0,0,0,0,0,0,0,0,0,0,0,0,0,0,0,0,
0,0,0,0,0,0,0,0,525,526,527,0,0,0,0,0,0,0,0,0,0,0,0,0,0,0,0,0,0,0,
0,0,0,0,0,0,0,0,589,590,591,0,0,0,0,0,0,0,0,0,0,0,0,0,0,0,0,0,0,0,
0,0,0,0,0,0,0,0,653,654,655,0,0,0,0,0,0,0,0,0,0,0,0,0,0,0,0,0,0,0,
0,0,0,0,0,0,0,0,0,0,0,0,0,0,0,0,0,0,0,0,0,0,0,0,0,0,0,0,0,0,
0,0,0,0,0,0,0,0,0,0,0,0,0,0,0,0,0,0,0,0,0,0,0,0,0,0,0,0,0,0,
0,0,0,0,0,0,0,0,0,0,0,0,0,0,0,1722,1722,1722,1722,0,0,0,0,0,0,0,0,0,0,0,
0,0,0,0,0,0,0,0,0,0,0,0,0,0,1722,1722,0,0,1722,0,0,0,0,0,0,0,0,0,0,0,
0,0,0,0,0,0,0,0,1728,1728,1728,1728,1728,1728,0,0,0,0,0,1728,1728,0,0,0,0,0,0,0,0,0,
0,0,0,0,0,0,0,0,0,0,0,1728,1728,0,0,0,0,0,0,1728,1728,670,0,0,0,0,0,0,0,0,
0,1696,0,0,0,0,0,0,0,0,0,0,0,0,0,0,0,0,0,1728,1728,734,0,0,0,0,0,0,0,0,
0,0,0,0,0,0,0,0,0,0,0,0,0,0,0,0,0,0,0,0,0,798,0,0,0,0,0,0,0,0
</data>
 </layer>
 <layer id="2" name="Collision" width="30" height="20">
  <data encoding="csv">
927,927,927,927,0,285,285,285,285,285,285,285,285,285,285,285,285,285,285,285,285,285,285,285,285,285,285,285,285,30,
927,0,0,0,0,0,0,0,0,0,0,0,0,0,0,0,0,1610,0,0,0,0,0,0,0,1153,1154,1155,0,220,
927,0,0,0,0,0,0,0,0,0,0,0,0,0,0,0,0,0,0,0,0,0,0,0,0,1217,1218,1219,0,220,
927,0,0,0,0,0,0,0,0,0,0,0,0,0,0,0,0,0,0,0,0,0,0,0,0,1281,1282,1283,0,220,
0,0,0,0,0,1241,1242,0,0,0,0,1610,0,0,0,0,0,0,0,0,0,0,0,0,0,1345,1346,1347,0,220,
0,0,0,0,0,1305,1306,0,0,0,0,0,0,0,0,0,0,0,0,0,0,0,0,0,0,1409,1410,1411,0,220,
0,0,0,0,0,0,0,0,0,0,0,0,0,0,0,0,0,0,0,0,0,0,0,0,0,0,0,0,0,220,
0,0,0,0,0,0,0,0,0,0,0,0,0,0,0,0,0,0,0,0,0,0,0,0,0,0,0,0,0,220,
0,0,0,0,0,0,0,0,0,0,0,0,0,0,0,0,0,0,0,0,0,0,0,0,0,0,0,0,0,220,
0,0,0,0,0,1610,0,0,0,0,0,0,0,0,0,0,0,0,0,0,0,0,0,0,0,0,0,0,0,0,
0,0,0,0,0,0,0,0,0,0,0,0,0,0,0,0,0,0,0,0,0,0,0,0,0,0,0,0,0,0,
0,0,0,0,0,0,0,0,0,0,0,0,0,0,0,0,0,0,0,0,0,0,0,0,0,0,0,0,0,0,
184,184,1791,0,0,0,0,0,0,0,0,0,0,0,0,0,0,0,0,0,0,0,0,0,0,0,0,0,0,0,
184,184,0,0,1728,0,0,0,0,0,0,0,0,1078,0,0,0,0,0,0,0,0,0,0,0,0,0,0,0,0,
248,248,0,0,1144,0,0,1144,0,0,1144,1078,0,147,1722,1694,0,0,1694,0,0,0,0,0,0,0,0,0,0,0,
0,0,0,0,0,0,0,1600,0,0,0,0,0,211,1722,1758,1788,1788,1758,0,0,665,666,667,0,0,0,665,666,667,
0,0,0,186,1664,1664,1664,1600,0,0,0,1241,1242,275,1593,1593,1322,1323,1594,0,0,729,730,352,666,666,666,351,730,731,
0,0,0,314,314,314,314,250,498,2147484146,499,1305,1306,1728,1657,1643,1450,1451,2147485291,0,0,793,794,415,730,730,730,416,794,795,
0,0,0,0,754,502,433,433,433,433,2684355058,497,687,1728,1728,1453,1578,1579,2147485101,1789,0,857,858,793,794,794,794,795,858,859,
0,0,0,0,498,2684355062,433,433,433,433,2147484278,630,628,629,505,505,505,505,505,505,827,857,539,923,0,0,0,857,539,923
</data>
 </layer>
</map>
