<?xml version="1.0" encoding="UTF-8"?>
<map version="1.10" tiledversion="1.11.2" orientation="orthogonal" renderorder="right-down" width="30" height="20" tilewidth="32" tileheight="32" infinite="0" nextlayerid="6" nextobjectid="26">
 <tileset firstgid="1" source="terrain.tsx"/>
 <layer id="1" name="Background" width="30" height="20" visible="0">
  <data encoding="csv">
293,293,293,293,293,293,293,293,293,293,293,293,293,293,293,293,293,293,293,293,293,293,293,293,293,293,293,293,293,293,
293,293,293,293,293,293,293,293,293,293,293,293,293,293,293,293,293,293,293,293,293,293,293,293,293,293,293,293,293,293,
293,293,293,293,293,293,293,293,293,293,293,293,293,293,293,293,293,293,293,356,293,293,293,293,293,293,293,293,293,293,
293,293,356,293,293,293,293,293,293,293,293,293,293,293,293,293,293,293,293,293,293,293,293,293,293,293,293,293,293,293,
293,293,293,293,293,293,293,293,293,356,293,293,293,293,293,293,293,293,293,293,293,293,293,293,293,293,293,293,293,293,
293,293,293,293,293,293,293,293,293,293,293,293,293,293,293,293,293,293,293,293,293,580,293,293,293,293,293,293,293,293,
293,293,293,293,293,293,293,293,293,293,293,293,293,293,293,293,293,293,644,645,645,645,645,646,293,293,293,293,293,293,
293,293,293,293,293,293,293,293,293,293,293,293,293,293,356,293,293,293,676,581,709,709,709,710,293,293,293,293,293,293,
293,293,293,293,293,293,293,293,293,293,293,293,293,293,293,293,293,644,614,678,293,293,293,293,293,293,293,293,293,293,
293,293,293,356,293,293,293,356,293,293,293,293,644,645,645,645,645,614,581,710,293,293,293,293,293,293,293,293,293,293,
293,293,293,293,293,293,293,293,293,293,293,293,676,581,709,709,709,709,710,293,293,293,293,293,293,293,293,293,293,293,
293,293,293,293,293,293,293,293,293,293,293,644,614,678,293,293,293,293,293,293,293,293,293,293,293,293,293,293,293,293,
293,293,293,293,293,645,645,645,645,645,645,614,581,710,293,293,293,293,293,293,293,293,293,293,293,293,293,293,293,293,
293,293,293,293,293,709,709,709,709,709,709,709,710,293,293,293,293,293,293,293,293,356,293,293,293,293,293,293,293,293,
293,293,293,293,293,293,293,293,293,293,293,293,293,293,293,293,293,293,293,293,293,293,293,293,293,293,293,293,293,293,
293,293,293,293,293,293,293,293,293,293,293,293,293,293,293,356,293,293,293,293,293,293,293,293,293,293,293,293,293,293,
293,293,293,293,293,293,293,293,293,293,293,293,293,293,293,293,293,293,293,293,293,293,293,293,293,293,293,293,293,293,
293,293,293,293,293,293,356,293,293,293,293,293,293,293,293,293,293,293,293,293,293,293,293,293,293,293,293,293,293,293,
293,293,293,293,293,293,293,293,293,293,293,293,293,293,293,293,293,293,293,293,293,293,293,293,293,293,293,293,293,293,
293,293,293,293,293,293,293,293,293,293,293,293,293,293,293,293,293,293,293,293,293,293,293,293,293,293,293,293,293,293
</data>
 </layer>
 <layer id="3" name="Background2" width="30" height="20" visible="0">
  <data encoding="csv">
0,0,0,0,0,0,0,0,0,0,0,0,0,0,0,0,0,0,0,0,0,0,0,0,0,0,0,0,0,0,
0,0,0,0,0,0,0,0,0,0,0,0,0,0,0,0,0,0,0,0,0,0,0,0,0,0,0,0,0,0,
0,0,0,0,0,0,0,0,0,0,0,0,0,0,0,0,0,0,0,0,0,0,0,0,0,0,0,0,0,0,
0,0,0,0,0,0,0,0,0,0,0,0,0,0,0,0,0,0,0,0,0,0,0,0,0,0,0,0,0,0,
0,0,0,0,0,0,0,0,0,0,0,0,0,0,0,0,0,0,0,0,0,0,0,0,0,0,0,0,0,0,
0,0,0,0,0,0,0,0,0,0,0,0,0,0,0,0,0,0,0,0,0,0,0,0,0,0,0,0,0,0,
0,0,0,0,0,0,0,0,0,0,0,0,0,0,0,0,0,0,0,0,0,0,0,0,0,0,0,0,0,0,
0,0,0,0,0,0,0,0,0,0,0,0,0,0,0,0,0,0,0,0,0,0,0,0,0,0,0,0,0,0,
0,0,0,0,0,0,0,0,0,0,0,0,0,0,0,0,0,0,0,0,0,0,0,0,0,0,0,0,0,0,
0,0,0,0,0,0,0,0,269,270,271,0,0,0,0,0,0,0,0,0,0,0,0,0,0,0,0,0,0,0,
0,0,0,0,0,0,0,0,301,302,303,0,0,0,0,0,0,0,0,0,0,0,0,0,0,0,0,0,0,0,
0,0,0,0,0,0,0,0,333,334,335,0,0,0,0,0,0,0,0,0,0,0,0,0,0,0,0,0,0,0,
0,0,0,0,0,0,0,0,0,0,0,0,0,0,0,0,0,0,0,0,0,0,0,0,0,0,0,0,0,0,
0,0,0,0,0,0,0,0,0,0,0,0,0,0,0,0,0,0,0,0,0,0,0,0,0,0,0,0,0,0,
0,0,0,0,0,0,0,0,0,0,0,0,0,0,0,0,0,0,0,0,0,0,0,0,0,0,0,0,0,0,
0,0,0,0,0,0,0,0,0,0,0,0,0,0,0,0,0,0,0,0,0,0,0,0,0,0,0,0,0,0,
0,0,0,0,0,0,0,0,0,0,0,0,0,0,0,0,0,0,0,0,0,0,0,0,0,0,0,0,0,0,
0,0,0,0,0,0,0,0,0,0,0,0,0,0,0,0,0,0,0,0,0,350,0,0,0,0,0,0,0,0,
0,0,0,0,0,0,0,0,0,0,0,0,0,0,0,0,0,0,0,0,0,382,0,0,0,0,0,0,0,0,
0,0,0,0,0,0,0,0,0,0,0,0,0,0,0,0,0,0,0,0,0,414,0,0,0,0,0,0,0,0
</data>
 </layer>
 <layer id="2" name="Collision" width="30" height="20">
  <data encoding="csv">
479,479,479,479,0,157,157,157,157,157,157,157,157,157,157,157,157,157,157,157,157,157,157,157,157,157,157,157,157,30,
479,0,0,0,0,0,0,0,0,0,0,0,0,0,0,0,0,0,0,0,0,0,0,0,0,577,578,579,0,124,
479,0,0,0,0,0,0,0,0,0,0,0,0,0,0,0,0,0,0,0,0,0,0,0,0,609,610,611,0,124,
479,0,0,0,0,0,0,0,0,0,0,0,0,0,0,0,0,0,0,0,0,0,0,0,0,641,642,643,0,124,
0,0,0,0,0,633,634,0,0,0,0,0,0,0,0,0,0,0,0,0,0,0,0,0,0,673,674,675,0,124,
0,0,0,0,0,665,666,0,0,0,0,0,0,0,0,0,0,0,0,0,0,0,0,0,0,705,706,707,0,124,
0,0,0,0,0,0,0,0,0,0,0,0,0,0,0,0,0,0,0,0,0,0,0,0,0,0,0,0,0,124,
0,0,0,0,0,0,0,0,0,0,0,0,0,0,0,0,0,0,0,0,0,0,0,0,0,0,0,0,0,124,
0,0,0,0,0,0,0,0,0,0,0,0,0,0,0,0,0,0,0,0,0,0,0,0,0,0,0,0,0,124,
0,0,0,0,0,0,0,0,0,0,0,0,0,0,0,0,0,0,0,0,0,0,0,0,0,0,0,0,0,0,
0,0,0,0,0,0,0,0,0,0,0,0,0,0,0,0,0,0,0,0,0,0,0,0,0,0,0,0,0,0,
0,0,0,0,0,0,0,0,0,0,0,0,0,0,0,0,0,0,0,0,0,0,0,0,0,0,0,0,0,0,
0,0,0,0,0,0,0,0,0,0,0,0,0,0,0,0,0,0,0,0,0,0,0,0,0,0,0,0,0,0,
0,0,0,0,0,0,0,0,0,0,0,0,0,0,0,0,0,0,0,0,0,0,0,0,0,0,0,0,0,0,
0,0,0,0,0,0,0,0,0,0,0,0,0,83,84,85,0,0,0,0,0,0,0,0,0,0,0,0,0,0,
0,0,0,0,0,0,0,0,0,0,0,0,0,115,116,117,0,0,0,0,0,345,346,347,0,0,0,345,346,347,
0,0,0,0,0,0,0,0,0,0,0,633,634,147,148,149,0,0,0,0,0,377,378,192,346,346,346,191,378,379,
0,0,0,0,0,0,0,0,0,0,0,665,666,0,0,0,0,0,0,0,0,409,410,223,378,378,378,224,410,411,
0,0,0,0,0,0,0,0,0,0,0,0,0,0,0,0,0,0,0,0,0,441,442,409,410,410,410,411,442,443,
0,0,0,0,0,0,0,0,0,0,0,0,0,0,0,0,0,0,0,0,0,441,283,475,0,0,0,441,283,475
</data>
 </layer>
 <objectgroup id="5" name="Collision_objects">
  <object id="17" x="3.74906" y="2.49938" width="954.761" height="26.2434"/>
  <object id="18" x="3.74906" y="28.7428" width="27.4931" height="94.9763"/>
  <object id="19" x="163.709" y="144.964" width="59.985" height="44.9888"/>
  <object id="20" x="356.161" y="521.12" width="56.2359" height="48.7378"/>
  <object id="21" x="422.394" y="456.136" width="81.2297" height="77.4806"/>
  <object id="22" x="678.58" y="581.105" width="67.4831" height="56.2359"/>
  <object id="23" x="874.781" y="581.105" width="64.9838" height="49.9875"/>
  <object id="24" x="932.267" y="24.9938" width="26.2434" height="261.185"/>
  <object id="25" x="807.298" y="29.9925" width="79.98" height="134.966"/>
 </objectgroup>
</map>
