<?xml version="1.0" encoding="UTF-8"?>
<map version="1.10" tiledversion="1.11.2" orientation="orthogonal" renderorder="right-down" width="30" height="20" tilewidth="32" tileheight="32" infinite="0" nextlayerid="2" nextobjectid="1">
 <tileset firstgid="1" source="terrain.tsx"/>
 <layer id="1" name="Tile Layer 1" width="30" height="20">
  <data encoding="csv">
356,356,356,356,356,356,356,356,356,356,356,356,356,356,356,356,356,356,356,356,356,193,356,356,356,197,198,199,356,201,
356,356,356,356,356,356,356,356,356,356,356,356,356,356,356,356,356,356,356,356,356,356,356,356,356,356,356,356,356,201,
356,356,356,356,356,356,356,356,356,356,356,356,356,257,356,356,356,356,356,356,356,356,356,356,356,356,356,356,200,201,
356,356,356,356,356,356,356,356,356,356,356,194,195,196,356,356,356,200,356,201,289,356,356,356,356,356,356,356,356,201,
356,356,356,356,356,356,356,356,193,356,356,195,196,197,198,199,200,201,201,233,201,201,356,356,196,356,198,356,356,201,
356,356,356,356,356,197,198,199,193,194,356,356,356,356,199,200,201,193,194,195,196,197,198,199,356,201,201,356,201,201,
356,356,356,356,356,197,198,199,193,194,195,196,197,356,356,356,201,193,194,195,196,197,198,199,356,201,356,356,233,233,
356,356,356,356,356,198,199,193,193,194,195,196,197,198,199,356,356,193,194,195,196,197,198,199,200,201,356,265,356,356,
356,356,356,356,197,198,199,225,193,194,193,194,195,196,197,193,356,356,194,195,196,197,198,199,200,201,356,297,356,356,
356,356,195,356,197,198,193,257,225,193,193,194,195,196,193,225,193,193,356,195,196,197,193,194,356,356,356,356,199,356,
356,356,195,356,197,198,225,289,257,193,193,194,195,196,225,257,193,193,194,356,196,197,356,356,227,356,356,356,231,356,
356,356,356,356,197,198,257,321,289,193,193,194,195,193,257,289,193,225,193,194,356,356,257,258,259,356,356,356,356,356,
356,356,356,196,197,193,289,321,321,193,193,194,195,225,289,321,225,257,193,356,356,356,289,290,291,356,356,356,356,296,
356,356,356,196,193,225,321,322,323,225,193,194,193,257,321,321,257,356,356,225,225,193,356,322,323,356,356,356,356,328,
356,356,356,196,225,257,321,322,323,257,225,193,225,289,321,356,356,321,193,257,257,225,356,356,323,356,356,356,356,328,
356,356,356,193,257,289,321,322,323,289,257,193,257,321,356,356,321,193,225,289,289,257,321,356,356,324,325,356,356,356,
356,356,356,225,289,321,322,323,324,321,289,225,356,356,322,323,324,225,257,321,321,289,321,322,356,356,325,356,356,356,
225,356,356,257,321,322,323,324,325,326,321,356,356,322,323,324,325,257,289,321,322,321,321,322,323,356,356,356,356,356,
356,356,289,289,321,322,323,324,325,326,356,289,321,322,323,324,325,289,321,321,322,323,321,322,323,324,356,356,356,356,
356,356,321,321,322,323,324,325,356,356,328,321,322,323,324,325,326,321,321,322,323,324,321,322,323,324,325,326,356,356
</data>
 </layer>
</map>
