<?xml version="1.0" encoding="UTF-8"?>
<map version="1.10" tiledversion="1.11.2" orientation="orthogonal" renderorder="right-down" width="40" height="22" tilewidth="32" tileheight="32" infinite="0" nextlayerid="4" nextobjectid="1">
 <tileset firstgid="1" source="../test.tsx"/>
 <tileset firstgid="1025" source="Tree.tsx"/>
 <tileset firstgid="1029" source="Panda.tsx"/>
 <tileset firstgid="1197" source="light_forest_tileset_0.tsx"/>
 <tileset firstgid="1349" source="Dungoen Tileset PNG.tsx"/>
 <tileset firstgid="1574" source="chests_32x32.tsx"/>
 <tileset firstgid="1589" source="dark_forest.tsx"/>
 <tileset firstgid="1741" source="mountain_landscape.tsx"/>
 <tileset firstgid="1997" source="SPOOKYDOOR.tsx"/>
 <tileset firstgid="1998" source="Tree 2.tsx"/>
 <layer id="1" name="Tile Layer 1" width="40" height="22">
  <data encoding="csv">
1993,0,0,0,0,0,0,0,0,0,0,0,0,0,0,0,0,0,0,0,0,0,0,0,0,0,0,0,0,0,0,0,2157,2181,2181,2160,0,0,0,0,
1993,0,0,0,0,0,0,0,0,0,0,0,0,0,0,0,0,0,0,0,0,0,0,0,0,0,0,0,0,0,0,0,2203,2204,2113,2206,0,0,0,0,
1993,0,0,0,0,0,0,0,0,0,0,0,1029,1029,1029,1997,0,0,0,0,0,0,0,0,0,0,0,0,0,0,0,0,2130,2131,2132,2133,0,0,0,0,
0,0,0,0,0,808,581,0,0,0,0,0,0,0,0,0,0,0,0,0,0,0,0,0,0,0,0,0,0,0,0,0,2271,2224,2224,2271,0,0,0,0,
0,0,0,0,0,808,808,808,808,808,808,808,0,0,0,0,0,0,0,577,578,579,0,0,0,0,0,0,0,0,0,0,0,0,0,278,279,0,0,0,
0,0,0,0,0,808,808,808,808,808,808,808,0,808,0,0,0,0,0,609,610,611,0,0,0,0,0,0,0,0,0,0,279,279,279,248,215,344,0,0,
0,0,0,0,0,808,808,808,808,808,808,0,0,0,0,0,0,0,0,641,642,643,0,0,0,0,644,0,0,0,0,0,343,343,343,343,344,0,0,0,
0,0,0,0,0,808,808,808,808,808,808,1248,1249,1250,0,1475,0,0,0,208,674,675,0,0,0,644,614,581,0,0,0,0,0,0,0,0,0,0,0,0,
205,0,0,0,0,808,808,1166,1166,0,0,0,1541,0,0,1538,1025,1026,1228,240,16,707,0,0,644,614,581,710,0,0,0,0,0,0,0,0,0,0,0,0,
237,0,0,0,0,1157,1158,1158,1158,1584,1575,0,1556,1581,0,1553,1027,1028,163,163,163,0,0,0,614,581,710,0,0,0,0,0,0,0,0,0,0,0,0,0,
237,0,0,0,0,1173,1157,162,163,162,163,162,1028,162,162,163,163,163,163,163,1158,0,0,0,0,0,0,0,0,0,0,0,1654,1654,1655,1656,1657,1658,1659,1660,
0,0,0,0,0,1105,1173,1157,163,163,162,163,162,163,162,163,1241,163,163,1158,1158,0,0,0,0,676,678,0,0,0,0,0,1661,1662,1663,1664,1665,1666,1667,1668,
1998,0,0,0,1070,1071,1105,1173,1175,1175,1175,1175,1175,1175,1175,1175,1175,1175,1175,1175,644,645,645,645,645,614,678,0,0,0,0,0,1669,1670,1671,1672,1673,1674,1675,1676,
1999,0,0,0,0,1070,1071,1187,1191,1191,1191,1191,1191,1191,1191,1191,1191,1191,1191,1191,708,709,709,709,709,709,710,0,0,0,0,0,1677,1678,1679,1680,1681,1682,1683,1684,
1998,0,0,0,0,1998,1998,1998,1998,1998,1857,1858,1863,1819,1819,1896,1897,1898,1978,188,190,189,190,188,125,1645,1646,1638,0,0,0,0,1685,1686,1687,1688,1689,1690,1691,1692,
1999,0,0,0,0,1999,1999,1999,1998,1999,1873,1874,1863,1835,1835,1912,1913,1914,1994,0,0,0,28,29,30,1645,1646,1646,1638,0,0,0,1693,1694,1695,1696,1697,1698,1699,1700,
1998,0,0,0,0,0,0,0,1999,0,0,0,0,0,0,1928,1929,1930,0,0,0,0,0,61,62,0,0,1645,1646,1638,1638,1620,1701,1702,1703,1704,1705,1706,1707,1708,
1999,0,0,0,0,0,0,0,0,0,0,0,0,0,0,0,0,0,0,0,0,0,0,0,0,0,0,1645,1646,1646,1646,1638,1624,1710,1711,1712,1713,1714,1715,1716,
0,0,0,0,0,0,0,0,0,0,0,0,0,0,0,0,0,0,0,0,0,0,0,0,0,0,0,0,0,1645,1646,1646,1638,1718,1719,1720,1721,1722,1723,1724,
0,0,0,0,0,0,0,0,0,0,0,0,0,0,0,0,0,0,0,0,0,0,0,0,0,0,0,0,1604,1604,1604,1646,1646,1638,1624,1728,1729,1624,1624,1732,
0,0,0,0,0,0,0,0,0,0,0,0,0,0,0,0,0,0,0,0,0,0,0,0,0,0,0,0,0,0,1604,1645,1646,1646,1638,1620,1624,1638,1638,1638,
0,0,0,0,0,0,0,0,0,0,0,0,0,0,0,0,0,0,0,0,0,0,0,0,0,0,0,0,0,0,0,0,1645,1646,1646,1646,1646,1646,1646,1646
</data>
 </layer>
 <layer id="3" name="trees etc" width="40" height="22">
  <data encoding="csv">
0,0,0,0,0,0,0,0,0,0,0,0,0,0,0,0,0,0,0,0,0,0,0,0,0,0,0,0,0,0,0,0,0,0,0,0,0,0,0,0,
0,0,0,0,0,0,0,0,0,0,0,0,0,0,0,0,0,0,0,0,0,0,0,0,0,0,0,0,0,0,0,0,0,0,0,0,0,0,0,0,
0,0,0,0,0,0,0,0,0,0,0,0,0,0,0,0,0,0,0,0,0,0,0,0,0,0,0,0,0,0,0,0,0,0,0,0,0,0,0,0,
0,0,0,0,0,0,0,0,0,0,0,0,0,0,0,0,0,0,0,0,0,0,0,0,0,0,0,0,0,0,0,0,0,0,0,0,0,0,0,0,
0,0,0,0,0,0,0,0,0,0,0,0,0,0,0,0,0,0,0,0,0,0,0,0,0,0,0,0,0,0,0,0,0,0,0,0,0,0,0,0,
0,0,0,0,0,0,0,0,0,0,0,0,0,0,0,0,0,0,0,0,0,0,0,0,0,0,0,0,0,0,0,0,0,0,0,0,0,0,0,0,
0,0,0,0,0,0,0,0,0,0,0,0,0,0,0,0,0,0,0,0,0,0,0,0,0,0,0,0,0,0,0,0,0,0,0,0,0,0,0,0,
0,0,0,0,0,0,0,0,0,0,0,0,0,0,0,0,0,0,0,0,0,0,0,0,0,0,0,0,0,0,0,0,0,0,0,0,0,0,0,0,
0,0,0,0,0,0,0,0,0,0,0,0,0,0,0,0,0,0,0,0,0,0,0,0,0,0,0,0,0,0,0,0,0,0,0,0,0,0,0,0,
0,0,0,0,0,552,552,0,0,0,0,0,0,0,0,0,0,0,0,0,0,0,0,0,0,0,0,0,0,0,0,0,0,0,0,0,0,0,0,0,
0,0,0,0,0,0,552,0,0,0,0,0,0,0,0,0,0,0,0,0,0,0,0,0,0,0,0,0,0,0,0,0,0,0,0,0,0,0,0,0,
0,0,0,0,0,0,0,0,0,0,0,0,0,0,0,0,0,0,0,0,0,0,0,0,0,0,0,0,0,0,0,0,0,0,0,0,0,0,0,0,
0,0,0,0,0,0,0,0,0,0,0,0,0,0,0,0,0,0,0,0,0,0,0,0,0,0,0,0,0,0,0,0,0,0,0,0,0,0,0,0,
0,0,0,0,0,0,0,0,0,0,0,0,0,0,0,0,0,0,0,0,0,0,0,0,0,0,0,0,0,0,0,0,0,0,0,0,0,0,0,0,
0,0,0,0,0,0,0,0,0,0,0,0,0,0,0,0,0,0,0,0,0,0,0,0,0,0,0,0,0,0,0,0,0,0,0,0,0,0,0,0,
0,0,0,0,0,0,0,0,0,0,0,0,0,0,0,0,0,0,0,0,0,0,0,0,0,0,0,0,0,0,0,0,0,0,0,0,0,0,0,0,
0,0,0,0,0,0,0,0,0,0,0,0,0,0,0,0,0,0,0,0,0,0,0,0,0,0,0,0,0,0,0,0,0,0,0,0,0,0,0,0,
0,0,0,0,0,0,0,0,0,0,0,0,0,0,0,0,0,0,0,0,0,0,0,0,0,0,0,0,0,0,0,0,0,0,0,0,0,0,0,0,
0,0,0,0,0,0,0,0,0,0,0,0,0,0,0,0,0,0,0,0,0,0,0,0,0,0,0,0,0,0,0,0,0,0,0,0,0,0,0,0,
0,0,0,0,0,0,0,0,0,0,0,0,0,0,0,0,0,0,0,0,0,0,0,0,0,0,0,0,0,0,0,0,0,0,0,0,0,0,0,0,
0,0,0,0,0,0,0,0,0,0,0,0,0,0,0,0,0,0,0,0,0,0,0,0,0,0,0,0,0,0,0,0,0,0,0,0,0,0,0,0,
0,0,0,0,0,0,0,0,0,0,0,0,0,0,0,0,0,0,0,0,0,0,0,0,0,0,0,0,0,0,0,0,0,0,0,0,0,0,0,0
</data>
 </layer>
</map>
